X:65
T:Jig. RDO.65
M:6/8
L:1/8
Q:3/8=120
S:Robert D. Owen MS,Indiana,1826.
R:.Jig
O:Indiana,USA
A:New Harmony
Z:vmp.Chris Partington
K:D
f|d2A AFA|AFD Dfe|{c}d2A AGF|EFEc2e|!
“8va……..”{c}d2A AFA|AFA AFD|GBG FAF|EFEc2e:|!
|:ded fef|dedf2e|ded fef|efeg2f|!
def fef|fef fef|gbg faf|efe gfe:|

